X:1
T:Title
%%score { ( 1 3 ) | ( 2 4 ) }
L:1/8
Q:1/4=112
M:4/4
K:Ab
V:1 treble nm="Grand Piano"
V:3 treble 
V:2 bass 
V:4 bass 
V:1
 [Ec]4 [Fd]2 [Ec]2 | [CA]6 [CE]2 | F2 B2 A2 F2 | [CE]6 [CE]2 | E6 B2 | B2 A2 A2 c2 | [=Dc]4 [DB]4 | %7
w: J.~W.~Lerman * *|||||||
 [EB]6 z2 | [Ec]4 [=Ec]2 [EB]2 | [GB]4 [FA]4 | [Fd]2 [Fc]2 [FB]2 [FA]2 | [EG]6 z2 | %12
w: |||||
 [EA]4 [EA]2 [EG]2 | [DF]2 [EA]2 [Ed]2 [Ec]2 | c6[K:bass][K:treble] z2 |[M:3/4] [CA]6 |[M:1/4] A2 | %17
w: |||||
[M:4/4] [Fd]4 [Fd]4 | [Ec]6 [Ec]2 | B2 B2 c2 d2 | [Ec]6 [=Ec]2 | [=Ec]4 [Ec]4 | [Fc]6 [Ec]2 | %23
w: ||||||
 [=DB]2 [DA]2 [B,DG]2 [A,DF]2 | [G,E]6 [G,DE]2 | [A,CE]4 [A,EA]4 | [B,EG]6 [EB]2 | %27
w: ||||
 [EA]3 [EA] [Ed]2 [Ec]2 | [EB]6 [Ee]2 | [Ee]4 [EA]4 | [FB]3 [FB] [Ec]2 [Dd]2 | [Ec]4 [DB]4 | %32
w: |||||
 [CA]6 z2 |] %33
w: |
V:2
 [A,,A,]4 [E,G,]2 [E,G,]2 | [A,,A,]6 [A,,A,]2 | [D,A,D]2 [D,F,D]2 [D,F,D]2 [D,A,D]2 | %3
 [A,,A,]6 [A,,A,]2 | [E,G,D]6 [E,G,E]2 | [E,G,D]2 [F,A,C]2 [F,A,C]2 [F,A,C]2 | [B,,A,]4 [B,,A,]4 | %7
 [D,G,]6 z2 | [A,,A,]4 [C,G,]2 [C,C]2 | [F,C]4 [F,C]4 | [B,,B,]2 [C,=A,]2 [D,B,]2 [=E,_C]2 | %11
 [E,B,]6 z2 | [C,A,]4 [C,A,]2 [C,A,]2 | [D,A,]2 [C,A,]2 [B,,G,]2 [A,,A,]2 | [E,E]6 z2 | %15
[M:3/4] [A,,A,]6 |[M:1/4] [A,_G]2 |[M:4/4] [D,A,]4 [D,A,]4 | [A,,A,]6 [A,,A,]2 | %19
 [E,G,E]2 [E,G,E]2 [E,A,E]2 [E,B,E]2 | [A,,A,]6 [A,,A,]2 | [C,G,]4 [C,G,]4 | [F,A,]6 [F,=A,]2 | %23
 [B,,B,]2 [B,,F,]2 B,,2 B,,2 | E,6 E,2 | A,,4 C,4 | E,6 [D,G,]2 | %27
 [C,A,]3 [C,A,] [B,,G,]2 [A,,A,]2 | [E,G,]6 [D,G,]2 | [C,A,]4 [C,A,]4 | %30
 [D,A,]3 [D,A,] [C,=A,]2 [B,,B,]2 | [E,A,]4 [E,G,]4 | [A,,A,]6 z2 |] %33
V:3
 x8 | x8 | x8 | x8 | x8 | x8 | x8 | x8 | x8 | x8 | x8 | x8 | x8 | x8 | %14
 z2[K:bass] G,2 F,2[K:treble] B2 |[M:3/4] x6 |[M:1/4] x2 |[M:4/4] x8 | x8 | x8 | x8 | x8 | x8 | %23
 x8 | x8 | x8 | x8 | x8 | x8 | x8 | x8 | x8 | x8 |] %33
V:4
 x8 | x8 | x8 | x8 | x8 | x8 | x8 | x8 | x8 | x8 | x8 | x8 | x8 | x8 | A,2 z2 z2 [E,G,D]2 | %15
[M:3/4] x6 |[M:1/4] x2 |[M:4/4] x8 | x8 | x8 | x8 | x8 | x8 | x8 | x8 | x8 | x8 | x8 | x8 | x8 | %30
 x8 | x8 | x8 |] %33

